public/static/illustrations/illustration_login.svg

<svg height="341" viewBox="0 0 444 341" width="444" xmlns="http://www.w3.org/2000/svg" xmlns:xlink="http://www.w3.org/1999/xlink"><defs><filter id="a"><feColorMatrix in="SourceGraphic" type="matrix" values="0 0 0 0 0.568627 0 0 0 0 0.619608 0 0 0 0 0.670588 0 0 0 1.000000 0"/></filter><linearGradient id="b"><stop offset="0"/><stop offset="1" stop-opacity="0"/></linearGradient><linearGradient id="c" x1="19.495903%" x2="77.479035%" xlink:href="#b" y1="59.931202%" y2="34.840928%"/><linearGradient id="d" x1="19.495903%" x2="77.479035%" xlink:href="#b" y1="59.696079%" y2="35.199823%"/><linearGradient id="e" x1="19.495903%" x2="77.479035%" xlink:href="#b" y1="59.69608%" y2="35.199822%"/><linearGradient id="f" x1="19.495903%" x2="77.479035%" xlink:href="#b" y1="59.931203%" y2="34.840927%"/><linearGradient id="g" x1="19.495903%" x2="77.479035%" xlink:href="#b" y1="60.353258%" y2="34.196699%"/><linearGradient id="h" x1="19.495903%" x2="77.479035%" xlink:href="#b" y1="59.856342%" y2="34.955196%"/><filter id="i" height="151.9%" width="154.2%" x="-27.1%" y="-25.9%"><feOffset dx="16" dy="16" in="SourceAlpha" result="shadowOffsetOuter1"/><feGaussianBlur in="shadowOffsetOuter1" result="shadowBlurOuter1" stdDeviation="12"/><feColorMatrix in="shadowBlurOuter1" result="shadowMatrixOuter1" type="matrix" values="0 0 0 0 0.129411765   0 0 0 0 0.168627451   0 0 0 0 0.211764706  0 0 0 0.24 0"/><feMerge><feMergeNode in="shadowMatrixOuter1"/><feMergeNode in="SourceGraphic"/></feMerge></filter><linearGradient id="j" x1="107.139416%" x2="62.776454%" y1="50%" y2="50%"><stop offset="0" stop-color="#919eab" stop-opacity="0"/><stop offset="1" stop-color="#919eab"/></linearGradient><path id="k" d="m0 6.638204h184.529868v272.166381h-184.529868z"/><linearGradient id="l" x1="49.755831%" x2="51.610268%" y1="25.546385%" y2="100.936456%"><stop offset="0" stop-color="#00ab55"/><stop offset="1" stop-color="#007b55"/></linearGradient><path id="m" d="m0 278.804585v-272.16638059l132.755301-6.61335184v285.44278943z"/><mask id="n" fill="#fff"><use fill="#fff" fill-rule="evenodd" xlink:href="#m"/></mask></defs><g fill="none" fill-rule="evenodd"><g filter="url(#a)" opacity=".64" transform="translate(32 130)"><path d="m37.8278174 150.304288 23.8939718-11.712526 28.0355937 13.92841-24.2125582 12.345636z" fill="url(#c)" opacity=".231235"/><path d="m0 42.7042299 16.0375456-7.767787 18.8173869 9.2373684-16.2513796 8.1876673z" fill="url(#d)" opacity=".231235"/><path d="m303.478292 164.614325 17.143583-8.303496 20.115138 9.874428-17.372165 8.752335z" fill="url(#e)" opacity=".231235"/><path d="m170.576646 200.186612 17.418532-8.538348 20.437747 10.153711-17.650781 8.99988z" fill="url(#f)" opacity=".231235"/><path d="m344.342696 66.0727446 16.590564-8.3034963 19.466262 9.8744281-16.811772 8.7523341z" fill="url(#g)" opacity=".231235"/><path d="m228.200382 6.30299531 12.858336-6.30299531 15.087113 7.49545388-13.02978 6.64369782z" fill="#19bb56" opacity=".04"/><g fill="url(#h)"><path d="m64.3210051 93.4358926 134.3835719-65.6244071 157.676725 78.0398355-136.175354 69.171673z" opacity=".231235"/><path d="m68.311534 109.058338 134.383572-65.6244068 157.676724 78.0398358-136.175353 69.171672z" opacity=".231235"/></g></g><g filter="url(#i)" transform="translate(80)"><use fill="#fff" xlink:href="#k"/><use fill="url(#j)" xlink:href="#k"/><g transform="matrix(-1 0 0 1 214.709573 45.13979)"><path d="m23.6307436 5.66476518c3.5900286 6.69873742 3.1634398 23.69064052-1.4763523 24.88789182-1.8503676.4774685-5.7922288-.6921604-9.8040971-3.1129206l2.5182995 17.8340643h-14.8685937l5.11810361-23.8840827c-2.85439595-3.3543234-4.78624276-7.4650011-4.46340453-12.07109602.93024978-13.27233994 19.38601592-10.35259425 22.97604452-3.6538568z" fill="#ba8b72" transform="translate(2.920617 4.621811)"/><path d="m6.8968121 28.9999044c-1.86615487-8.3111915-7.18252549-13.9766522-6.37058817-17.6913994.54129154-2.4764981 1.98399579-4.01654533 4.32811272-4.62014168 1.21235509-4.90980863 5.12244899-6.99814161 11.73028175-6.26499893 9.911749 1.09971402 15.9613289 5.22036838 13.3488144 14.28760621-2.4015153 0-5.3006574-.8694376-9.3095685.620189-1.2720113.4726526-2.181791 1.9383895-2.7293393 4.3972109h-1.811611c-1.7582449-2.9179488-3.4918856-3.9902153-5.2009221-3.2167996-1.70903651.7734156-2.09752829 2.6520454-1.16547534 5.6358893l-.89240161 6.8524442z" fill="#ffc107"/></g><g transform="matrix(-1 0 0 1 283.432567 146.511093)"><path d="m100.559115 0 28.700296 137.06178h-11.905203l-20.8790301-58.157044-11.7139709-31.0270311c-4.383193 13.3229614-8.1424659 23.9310964-9.4494292 26.1298437-1.8685718 3.1435595-21.0771339 16.5126384-57.6256863 40.1072364l-6.1363803-10.445685c27.7062522-22.0616479 43.1483881-34.651219 46.3264075-37.7687127l.1936989-.1938002c.2340398-.23969.3711779-.4045389.4114144-.4945467.5582809-1.248858.5752463-21.5338793.6775377-42.9686413l.0084932-1.7401201c.0348199-6.9677334.0803964-14.00555502.158107-20.503279z" fill="#005249"/><g fill="#ffc107"><path d="m0 13.5226145.61952474-13.02397004h13.01001946c6.1689816 4.34132335 14.2228032 7.85572797 24.1614648 10.54321384v2.4807562h-23.54194l-8.05382162-1.2403781v1.2403781z" transform="matrix(.64278761 .76604444 -.76604444 .64278761 11.102948 102.021719)"/><path d="m0 13.5226145.61952474-13.02397004h13.01001946c6.1689816 4.34132335 14.2228032 7.85572797 24.1614648 10.54321384v2.4807562h-23.54194l-8.05382162-1.2403781v1.2403781z" transform="translate(116.249392 134.702568)"/></g></g><g transform="matrix(-1 0 0 1 269.139246 78.07214)"><path d="m24.4967642 45.1506573 13.5659759.0509669c-10.3322793 33.5111752-15.8169846 51.0570953-16.4541158 52.6377604-1.4335453 3.5564964 1.6000292 8.9729784 2.8973061 11.8837564-4.2251875 1.892672-3.7749893-5.116668-9.1049497-2.634322-4.8649406 2.26577-8.5656889 6.371195-14.18642489 2.899309-.69103646-.426848-1.44829984-2.034007.38134422-3.289917 4.55831059-3.128931 11.12711227-8.6051222 12.01466087-10.4076531 1.210331-2.4580728 4.8390655-19.5047064 10.8862033-51.1399006zm85.8186308 15.5113319 17.549837 17.1389387c5.106356 2.1804674 9.290287 4.5881437 12.551794 7.2230289.093634.1130648.188327.2393518.275104.3720625l.083807.1346002c.523266.8855462.585659 1.9467536-2.277864 1.3166277-.186535-.0410477-.373694-.0817564-.560965-.1218656l-.56164-.1182677c-3.085272-.6377105-6.062381-1.041183-6.640856-.0391735-.648592 1.1234652 1.262539 2.8450131.063859 4.31534-.799119.980218-3.486621-2.1376634-8.062506-9.3536439l-18.24951-10.7709973z" fill="#ba8b72"/><path d="m62.7790903 9.34080727 5.2565515-1.38324696c11.0097065 29.01410599 55.9785452 45.51358689 59.6031882 56.40275559 1.329252 3.993346-1.422466 6.311545.200796 7.4212858l-6.491959 5.6902636c-1.294702-1.2692228-3.581867 1.4597842-8.970319.1622432s-46.5163768-33.0672413-49.5982577-68.29330123z" fill="#007b55" transform="matrix(.9961947 .08715574 -.08715574 .9961947 4.108585 -8.150852)"/><path d="m56.3062077.39075995 16.6870072 1.16852614c1.3650893.09596452 2.3943393 1.27996431 2.2994054 2.64512566l-.4460941 6.36517935c-.628295 39.558765 22.2138573 49.6449266 17.1273054 65.5090023-4.1994492 13.0973553-44.3951002 27.1769576-51.3507095 14.3384577-2.8158243-5.1973819-4.093221-11.483357-4.2379478-18.3175614-1.7773372 5.2508587-3.1835137 9.7709662-4.2178668 13.5605491-1.7841959 6.5367992-8.7011426 7.5758527-8.7011426 10.0940624l-9.1129795-2.5182097c.6181119-3.4210926-3.6779669-5.0869607-2.5260761-12.7299798 5.161073-34.2447237 19.0278217-59.0677827 41.6002462-74.46917708l.2345342-3.34651281c.0949449-1.36531904 1.2790272-2.39481056 2.644318-2.29946186z" fill="url(#l)" fill-rule="nonzero"/></g><use fill="#fff" xlink:href="#m"/><path d="m114.058201 1.2881915v283.6879345h-.828283v-283.6879345zm-23.6060555 1.24262845v282.09737005h-.8282826v-282.09737005zm-23.6060552 1.24262846v279.13162959h-.8282826v-279.13162959zm-23.6060552 1.24262845v276.29843714h-.8282827v-276.29843714zm-23.6060553 1.65683794v273.8131802h-.8282826v-273.8131802z" fill="#919eab" mask="url(#n)" opacity=".12"/><path d="m139.393066 285.442789-7.965318-.024785.314102-285.418004h7.651216z" fill="#dfe3e8"/><path d="m123.249607 154.52499c.914896 0 1.656565.741792 1.656565 1.656838 0 .657926-.383423 1.226284-.938974 1.493744l.429581.742988 1.151313 1.988205h-4.596969l1.151313-1.988205.42958-.742988c-.555551-.26746-.938974-.835818-.938974-1.493744 0-.915046.741669-1.656838 1.656565-1.656838zm0-16.568379c2.973411 0 5.383837 2.410823 5.383837 5.384723 0 2.973901-2.410426 5.384724-5.383837 5.384724s-5.383837-2.410823-5.383837-5.384724c0-2.9739 2.410426-5.384723 5.383837-5.384723z" fill="#919eab" opacity=".48"/></g></g></svg>

<?xml version="1.0" encoding="UTF-8"?>
<svg width="444px" height="341px" viewBox="0 0 444 341" version="1.1" xmlns="http://www.w3.org/2000/svg" xmlns:xlink="http://www.w3.org/1999/xlink">
    <title>__🥭Illustrations/ illustration_login</title>
    <defs>
        <filter id="filter-1">
            <feColorMatrix in="SourceGraphic" type="matrix" values="0 0 0 0 0.568627 0 0 0 0 0.619608 0 0 0 0 0.670588 0 0 0 1.000000 0"></feColorMatrix>
        </filter>
        <linearGradient x1="19.4959033%" y1="59.9312023%" x2="77.4790349%" y2="34.8409284%" id="linearGradient-2">
            <stop stop-color="#000000" offset="0%"></stop>
            <stop stop-color="#000000" stop-opacity="0" offset="100%"></stop>
        </linearGradient>
        <linearGradient x1="19.4959033%" y1="59.696079%" x2="77.4790349%" y2="35.1998226%" id="linearGradient-3">
            <stop stop-color="#000000" offset="0%"></stop>
            <stop stop-color="#000000" stop-opacity="0" offset="100%"></stop>
        </linearGradient>
        <linearGradient x1="19.4959033%" y1="59.6960795%" x2="77.4790349%" y2="35.1998218%" id="linearGradient-4">
            <stop stop-color="#000000" offset="0%"></stop>
            <stop stop-color="#000000" stop-opacity="0" offset="100%"></stop>
        </linearGradient>
        <linearGradient x1="19.4959033%" y1="59.931203%" x2="77.4790349%" y2="34.8409273%" id="linearGradient-5">
            <stop stop-color="#000000" offset="0%"></stop>
            <stop stop-color="#000000" stop-opacity="0" offset="100%"></stop>
        </linearGradient>
        <linearGradient x1="19.4959033%" y1="60.3532578%" x2="77.4790349%" y2="34.1966993%" id="linearGradient-6">
            <stop stop-color="#000000" offset="0%"></stop>
            <stop stop-color="#000000" stop-opacity="0" offset="100%"></stop>
        </linearGradient>
        <linearGradient x1="19.4959033%" y1="59.8563421%" x2="77.4790349%" y2="34.9551956%" id="linearGradient-7">
            <stop stop-color="#000000" offset="0%"></stop>
            <stop stop-color="#000000" stop-opacity="0" offset="100%"></stop>
        </linearGradient>
        <linearGradient x1="19.4959033%" y1="59.856342%" x2="77.4790349%" y2="34.9551957%" id="linearGradient-8">
            <stop stop-color="#000000" offset="0%"></stop>
            <stop stop-color="#000000" stop-opacity="0" offset="100%"></stop>
        </linearGradient>
        <filter x="-27.1%" y="-25.9%" width="154.2%" height="151.9%" filterUnits="objectBoundingBox" id="filter-9">
            <feOffset dx="16" dy="16" in="SourceAlpha" result="shadowOffsetOuter1"></feOffset>
            <feGaussianBlur stdDeviation="12" in="shadowOffsetOuter1" result="shadowBlurOuter1"></feGaussianBlur>
            <feColorMatrix values="0 0 0 0 0.129411765   0 0 0 0 0.168627451   0 0 0 0 0.211764706  0 0 0 0.24 0" type="matrix" in="shadowBlurOuter1" result="shadowMatrixOuter1"></feColorMatrix>
            <feMerge>
                <feMergeNode in="shadowMatrixOuter1"></feMergeNode>
                <feMergeNode in="SourceGraphic"></feMergeNode>
            </feMerge>
        </filter>
        <linearGradient x1="107.139416%" y1="50%" x2="62.7764544%" y2="50%" id="linearGradient-10">
            <stop stop-color="#919EAB" stop-opacity="0" offset="0%"></stop>
            <stop stop-color="#919EAB" offset="100%"></stop>
        </linearGradient>
        <rect id="path-11" x="0" y="6.63820441" width="184.529868" height="272.166381"></rect>
        <linearGradient x1="49.7558309%" y1="25.5463845%" x2="51.610268%" y2="100.936456%" id="linearGradient-12">
            <stop stop-color="#00AB55" offset="0%"></stop>
            <stop stop-color="#007B55" offset="100%"></stop>
        </linearGradient>
        <polygon id="path-13" points="0 278.804585 0 6.63820441 132.755301 0.0248525691 132.755301 285.467642"></polygon>
    </defs>
    <g id="__🥭Illustrations/-illustration_login" stroke="none" stroke-width="1" fill="none" fill-rule="evenodd">
        <g id="Group" transform="translate(32.000000, 130.000000)" opacity="0.64">
            <g id="🎨shape" filter="url(#filter-1)">
                <g>
                    <polygon id="path" fill="url(#linearGradient-2)" opacity="0.231235293" points="37.8278174 150.304288 61.7217892 138.591762 89.7573829 152.520172 65.5448247 164.865808"></polygon>
                    <polygon id="path" fill="url(#linearGradient-3)" opacity="0.231235293" points="0 42.7042299 16.0375456 34.9364429 34.8549325 44.1738113 18.6035529 52.3614786"></polygon>
                    <polygon id="path" fill="url(#linearGradient-4)" opacity="0.231235293" points="303.478292 164.614325 320.621875 156.310829 340.737013 166.185257 323.364848 174.937592"></polygon>
                    <polygon id="path" fill="url(#linearGradient-5)" opacity="0.231235293" points="170.576646 200.186612 187.995178 191.648264 208.432925 201.801975 190.782144 210.801855"></polygon>
                    <polygon id="path" fill="url(#linearGradient-6)" opacity="0.231235293" points="344.342696 66.0727446 360.93326 57.7692483 380.399522 67.6436764 363.58775 76.3960105"></polygon>
                    <polygon id="path" fill="#19BB56" opacity="0.04" points="228.200382 6.30299531 241.058718 -3.80267246e-14 256.145831 7.49545388 243.116051 14.1391517"></polygon>
                    <polygon id="path" fill="url(#linearGradient-7)" opacity="0.231235293" points="64.3210051 93.4358926 198.704577 27.8114855 356.381302 105.851321 220.205948 175.022994"></polygon>
                    <polygon id="path" fill="url(#linearGradient-8)" opacity="0.231235293" points="68.311534 109.058338 202.695106 43.4339312 360.37183 121.473767 224.196477 190.645439"></polygon>
                </g>
            </g>
        </g>
        <g id="#gr" filter="url(#filter-9)" transform="translate(80.000000, 0.000000)">
            <g id="-bg">
                <use fill="#FFFFFF" xlink:href="#path-11"></use>
                <use fill="url(#linearGradient-10)" xlink:href="#path-11"></use>
            </g>
            <g id="Humaaan" transform="translate(204.932567, 170.639790) scale(-1, 1) translate(-204.932567, -170.639790) translate(126.432567, 45.139790)">
                <g id="Head/Front" transform="translate(68.722994, 0.000000)">
                    <g id="Head" transform="translate(2.920617, 4.621811)" fill="#BA8B72">
                        <path d="M23.6307436,5.66476518 C27.2207722,12.3635026 26.7941834,29.3554057 22.1543913,30.552657 C20.3040237,31.0301255 16.3621625,29.8604966 12.3502942,27.4397364 L14.8685937,45.2738007 L0,45.2738007 L5.11810361,21.389718 C2.26370766,18.0353946 0.33186085,13.9247169 0.654699081,9.31862198 C1.58494886,-3.95371796 20.040715,-1.03397227 23.6307436,5.66476518 Z"></path>
                    </g>
                    <path d="M6.8968121,28.9999044 C5.03065723,20.6887129 -0.285713393,15.0232522 0.526223927,11.308505 C1.06751547,8.8320069 2.51021972,7.29195967 4.85433665,6.68836332 C6.06669174,1.77855469 9.97678564,-0.309778287 16.5846184,0.42336439 C26.4963674,1.52307841 32.5459473,5.64373277 29.9334328,14.7109706 C27.5319175,14.7109706 24.6327754,13.841533 20.6238643,15.3311596 C19.351853,15.8038122 18.4420733,17.2695491 17.894525,19.7283705 L16.082914,19.7283705 C14.3246691,16.8104217 12.5910284,15.7381552 10.8819919,16.5115709 C9.17295539,17.2849865 8.78446361,19.1636163 9.71651656,22.1474602 L8.82411495,28.9999044 L6.8968121,28.9999044 Z" id="Hair" fill="#FFC107"></path>
                </g>
                <g id="Bottom/Skinny-Jeans-1" transform="translate(0.000000, 101.371303)">
                    <path d="M100.559115,-8.52651283e-14 L129.259411,137.06178 L117.354208,137.06178 L96.4751779,78.904736 L84.761207,47.8777049 C80.378014,61.2006663 76.6187411,71.8088013 75.3117778,74.0075486 C73.443206,77.1511081 54.2346439,90.520187 17.6860915,114.114785 L17.6860915,114.114785 L11.5497112,103.6691 C39.2559634,81.6074521 54.6980993,69.017881 57.8761187,65.9003873 L58.0698176,65.7065871 C58.3038574,65.4668971 58.4409955,65.3020482 58.481232,65.2120404 C59.0395129,63.9631824 59.0564783,43.6781611 59.1587697,22.2433991 L59.1672629,20.503279 C59.2020828,13.5355456 59.2476593,6.49772398 59.3253699,-2.13162821e-14 L59.3253699,-2.13162821e-14 L100.559115,-8.52651283e-14 Z" id="Combined-Shape" fill="#005249"></path>
                    <g id="Left-Shoe" transform="translate(17.953601, 121.076077) rotate(50.000000) translate(-17.953601, -121.076077) translate(-1.046399, 114.076077)" fill="#FFC107">
                        <path d="M-8.95070897e-14,13.5226145 L0.619524738,0.498644462 L13.6295442,0.498644462 C19.7985258,4.83996781 27.8523474,8.35437243 37.791009,11.0418583 L37.791009,13.5226145 L14.249069,13.5226145 L6.19524738,12.2822364 L6.19524738,13.5226145 L-8.95070897e-14,13.5226145 Z" id="Shoe"></path>
                    </g>
                    <g id="Right-Shoe" transform="translate(116.249392, 134.702568)" fill="#FFC107">
                        <path d="M0,13.5226145 L0.619524738,0.498644462 L13.6295442,0.498644462 C19.7985258,4.83996781 27.8523474,8.35437243 37.791009,11.0418583 L37.791009,13.5226145 L14.249069,13.5226145 L6.19524738,12.2822364 L6.19524738,13.5226145 L0,13.5226145 Z" id="Shoe"></path>
                    </g>
                </g>
                <g id="Body/Long-Sleeve-1" transform="translate(14.293321, 32.932350)">
                    <path d="M24.4967642,45.1506573 L38.0627401,45.2016242 C27.7304608,78.7127994 22.2457555,96.2587195 21.6086243,97.8393846 C20.175079,101.395881 23.2086535,106.812363 24.5059304,109.723141 C20.2807429,111.615813 20.7309411,104.606473 15.4009807,107.088819 C10.5360401,109.354589 6.8352918,113.460014 1.21455581,109.988128 C0.523519347,109.56128 -0.233744032,107.954121 1.59590003,106.698211 C6.15421062,103.56928 12.7230123,98.0930888 13.6105609,96.2905579 C14.8208919,93.8324851 18.4496264,76.7858515 24.4967642,45.1506573 L24.4967642,45.1506573 Z M110.315395,60.6619892 L127.865232,77.8009279 C132.971588,79.9813953 137.155519,82.3890716 140.417026,85.0239568 C140.51066,85.1370216 140.605353,85.2633086 140.69213,85.3960193 L140.775937,85.5306195 C141.299203,86.4161657 141.361596,87.4773731 138.498073,86.8472472 C138.311538,86.8061995 138.124379,86.7654908 137.937108,86.7253816 L137.375468,86.6071139 C134.290196,85.9694034 131.313087,85.5659309 130.734612,86.5679404 C130.08602,87.6914056 131.997151,89.4129535 130.798471,90.8832804 C129.999352,91.8634984 127.31185,88.745617 122.735965,81.5296365 L104.486455,70.7586392 L110.315395,60.6619892 Z" id="Skin" fill="#BA8B72"></path>
                    <path d="M62.7790903,9.34080727 L68.0356418,7.95756031 C79.0453483,36.9716663 124.014187,53.4711472 127.63883,64.3603159 C128.968082,68.3536619 126.216364,70.6718609 127.839626,71.7816017 L121.347667,77.4718653 C120.052965,76.2026425 117.7658,78.9316495 112.377348,77.6341085 C106.988896,76.3365675 65.8609712,44.5668672 62.7790903,9.34080727 Z" id="Clothes-Back" fill="#007B55" transform="translate(95.396896, 42.975613) rotate(5.000000) translate(-95.396896, -42.975613) "></path>
                    <path d="M56.3062077,0.390759946 L72.9932149,1.55928609 C74.3583042,1.65525061 75.3875542,2.8392504 75.2926203,4.20441175 L74.8465262,10.5695911 C74.2182312,50.1283561 97.0603835,60.2145177 91.9738316,76.0785934 C87.7743824,89.1759487 47.5787314,103.255551 40.6231221,90.4170511 C37.8072978,85.2196692 36.5299011,78.9336941 36.3851743,72.0994897 C34.6078371,77.3503484 33.2016606,81.8704559 32.1673075,85.6600388 C30.3831116,92.196838 23.4661649,93.2358915 23.4661649,95.7541012 L23.4661649,95.7541012 L14.3531854,93.2358915 C14.9712973,89.8147989 10.6752185,88.1489308 11.8271093,80.5059117 C16.9881823,46.261188 30.854931,21.438129 53.4273555,6.03673462 L53.6618897,2.69022181 C53.7568346,1.32490277 54.9409169,0.295411249 56.3062077,0.390759946 Z" id="Clothes-Front" fill="url(#linearGradient-12)" fill-rule="nonzero"></path>
                </g>
            </g>
            <g id="-block">
                <mask id="mask-14" fill="white">
                    <use xlink:href="#path-13"></use>
                </mask>
                <use id="-bg" fill="#FFFFFF" xlink:href="#path-13"></use>
                <path d="M114.058201,1.2881915 L114.058201,284.976126 L113.229918,284.976126 L113.229918,1.2881915 L114.058201,1.2881915 Z M90.4521455,2.53081995 L90.4521455,284.62819 L89.6238629,284.62819 L89.6238629,2.53081995 L90.4521455,2.53081995 Z M66.8460903,3.77344841 L66.8460903,282.905078 L66.0178077,282.905078 L66.0178077,3.77344841 L66.8460903,3.77344841 Z M43.2400351,5.01607686 L43.2400351,281.314514 L42.4117524,281.314514 L42.4117524,5.01607686 L43.2400351,5.01607686 Z M19.6339798,6.6729148 L19.6339798,280.486095 L18.8056972,280.486095 L18.8056972,6.6729148 L19.6339798,6.6729148 Z" id="Combined-Shape" fill="#919EAB" opacity="0.12" mask="url(#mask-14)"></path>
            </g>
            <polygon id="Path" fill="#DFE3E8" points="139.393066 285.442789 131.427748 285.418004 131.74185 0 139.393066 0"></polygon>
            <path d="M123.249607,154.52499 C124.164503,154.52499 124.906172,155.266782 124.906172,156.181828 C124.906172,156.839754 124.522749,157.408112 123.967198,157.675572 L124.396779,158.41856 L125.548092,160.406765 L120.951123,160.406765 L122.102436,158.41856 L122.532016,157.675572 C121.976465,157.408112 121.593042,156.839754 121.593042,156.181828 C121.593042,155.266782 122.334711,154.52499 123.249607,154.52499 Z M123.249607,137.956611 C126.223018,137.956611 128.633444,140.367434 128.633444,143.341334 C128.633444,146.315235 126.223018,148.726058 123.249607,148.726058 C120.276196,148.726058 117.86577,146.315235 117.86577,143.341334 C117.86577,140.367434 120.276196,137.956611 123.249607,137.956611 Z" id="Combined-Shape" fill="#919EAB" opacity="0.48"></path>
        </g>
    </g>
</svg>
